icons/male_and_female_fill.svg

<svg width="48" height="48" viewBox="0 0 48 48" fill="none" xmlns="http://www.w3.org/2000/svg">
<path fill-rule="evenodd" clip-rule="evenodd" d="M14.4998 13C16.4328 13 17.9998 11.433 17.9998 9.5C17.9998 7.567 16.4328 6 14.4998 6C12.5668 6 10.9998 7.567 10.9998 9.5C10.9998 11.433 12.5668 13 14.4998 13ZM19.6483 20C19.6981 20.3524 19.7421 20.7287 19.7804 21.1216C19.999 23.3666 19.9998 25.8009 19.9998 26.4998C19.9998 27.3282 20.6713 27.9998 21.4998 27.9998C22.3282 27.9998 22.9998 27.3282 22.9998 26.4998V26.493C22.9998 25.7857 22.9998 23.2288 22.7663 20.8308C22.6505 19.6418 22.4695 18.4015 22.1693 17.4252C22.0221 16.9462 21.8145 16.4227 21.4987 15.9892C21.1822 15.5547 20.5898 15 19.6884 15H9.31111C8.40976 15 7.81731 15.5547 7.5008 15.9892C7.18504 16.4227 6.97746 16.9462 6.83017 17.4252C6.52997 18.4015 6.349 19.6418 6.23324 20.8308C5.99974 23.2288 5.99975 25.7857 5.99976 26.493V26.4998C5.99976 27.3282 6.67133 27.9998 7.49976 27.9998C8.32818 27.9998 8.99976 27.3282 8.99976 26.4998C8.99976 25.8009 9.00052 23.3666 9.21911 21.1216C9.25737 20.7287 9.30136 20.3524 9.3512 20H9.99976L9.99975 40.4999C9.99975 41.305 10.6354 41.9666 11.4399 41.9987C12.2444 42.0308 12.9308 41.4221 12.995 40.6195L13.8445 30H15.155L16.0045 40.6196C16.0687 41.4222 16.7551 42.0309 17.5596 41.9988C18.3641 41.9667 18.9998 41.3051 18.9998 40.5V20H19.6483Z" fill="black"/>
<path fill-rule="evenodd" clip-rule="evenodd" d="M37 9.5C37 11.433 35.433 13 33.5 13C31.567 13 30 11.433 30 9.5C30 7.567 31.567 6 33.5 6C35.433 6 37 7.567 37 9.5ZM37.8665 15.046C37.7467 15.0158 37.6236 15.0005 37.5 15.0005H32.0002C31.9869 15.0005 31.9733 15.0007 31.9601 15.001L31.4377 15.0009C30.6259 15.0008 29.7493 15.0008 29.4979 15.0012C29.375 15.0014 29.2526 15.0166 29.1335 15.0467C28.0198 15.3273 27.2715 16.0056 26.8006 16.9324C26.3884 17.7436 26.1874 18.7524 26.0204 19.7546L25.0204 25.7546C24.8842 26.5718 25.4362 27.3446 26.2534 27.4808C27.0705 27.617 27.8434 27.065 27.9796 26.2478L28.9796 20.2478C29.0724 19.6907 29.1579 19.2663 29.2448 18.9388L29.5 22.0002C29.4999 23.8697 27.806 32.4085 27.2069 35.3703C27.0942 35.9273 27.468 36.4634 28.0301 36.5471C32.1517 37.1615 34.8484 37.1418 38.9689 36.5426C39.5314 36.4608 39.9081 35.9272 39.7979 35.3696C39.2031 32.3609 37.5 23.6064 37.5 22L37.7552 18.9382C37.8421 19.2657 37.9276 19.6901 38.0204 20.2471L39.0204 26.2471C39.1566 27.0642 39.9294 27.6163 40.7466 27.4801C41.5638 27.3439 42.1158 26.5711 41.9796 25.7539L40.9796 19.7539C40.8126 18.7517 40.6116 17.7429 40.1994 16.9317C39.7285 16.0049 38.9802 15.3266 37.8665 15.046ZM30.0077 41.1241L29.6311 38.1115C30.6905 38.2418 31.6981 38.3256 32.6899 38.3637L31.9701 41.2426C31.8534 41.7097 31.4203 42.0273 30.9397 41.9982C30.4591 41.9692 30.0674 41.6018 30.0077 41.1241ZM35.0299 41.2421L34.3156 38.3853C35.3129 38.3733 36.3141 38.3149 37.3564 38.2111L36.9923 41.1236C36.9326 41.6014 36.5409 41.9687 36.0603 41.9977C35.5797 42.0268 35.1466 41.7092 35.0299 41.2421Z" fill="black"/>
</svg>

<svg
  xmlns="http://www.w3.org/2000/svg"
  width="24"
  height="24"
  viewBox="0 0 24 24"
  fill="none"
  stroke="currentColor"
  stroke-width="2"
  stroke-linecap="round"
  stroke-linejoin="round"
>
  <path
    fill-rule="evenodd"
    d="M14.5 13a3.5 3.5 0 1 0 0-7 3.5 3.5 0 0 0 0 7m5.148 7c.05.352.094.729.132 1.122C20 23.367 20 25.8 20 26.5a1.5 1.5 0 1 0 3 0v-.007c0-.707 0-3.264-.234-5.662-.115-1.19-.296-2.43-.597-3.406-.147-.479-.355-1.002-.67-1.436-.317-.434-.91-.989-1.81-.989H9.31c-.901 0-1.494.555-1.81.99-.316.433-.524.956-.67 1.435-.301.976-.482 2.217-.598 3.406C6 23.229 6 25.786 6 26.493v.007a1.5 1.5 0 0 0 3 0c0-.7 0-3.133.22-5.378.037-.393.081-.77.131-1.122H10v20.5a1.5 1.5 0 0 0 2.995.12l.85-10.62h1.31l.85 10.62A1.5 1.5 0 0 0 19 40.5V20z"
    clip-rule="evenodd"
  />
  <path
    fill-rule="evenodd"
    d="M37 9.5a3.5 3.5 0 1 1-7 0 3.5 3.5 0 0 1 7 0m.867 5.546a1.5 1.5 0 0 0-.367-.045h-8.002q-.185 0-.364.046c-1.114.28-1.863.959-2.333 1.885-.413.812-.614 1.82-.78 2.823l-1 6a1.5 1.5 0 1 0 2.959.493l1-6c.092-.557.178-.982.265-1.31L29.5 22c0 1.87-1.694 10.408-2.293 13.37a.99.99 0 0 0 .823 1.177c4.122.614 6.818.595 10.939-.004a.99.99 0 0 0 .829-1.173C39.203 32.36 37.5 23.606 37.5 22l.255-3.062c.087.328.173.752.265 1.31l1 6a1.5 1.5 0 0 0 2.96-.494l-1-6c-.167-1.002-.368-2.011-.78-2.822-.472-.927-1.22-1.605-2.334-1.886m-7.86 26.078-.376-3.013c1.06.13 2.067.215 3.059.253l-.72 2.879a1 1 0 0 1-1.962-.119m5.023.118-.714-2.857c.997-.012 1.998-.07 3.04-.174l-.364 2.913a1 1 0 0 1-1.962.118"
    clip-rule="evenodd"
  />
</svg>
